gnome/icons/Varda/apps/scalable/yast-sound.svg

<?xml version="1.0" encoding="UTF-8" standalone="no"?>
<svg
   xmlns:dc="http://purl.org/dc/elements/1.1/"
   xmlns:cc="http://creativecommons.org/ns#"
   xmlns:rdf="http://www.w3.org/1999/02/22-rdf-syntax-ns#"
   xmlns:svg="http://www.w3.org/2000/svg"
   xmlns="http://www.w3.org/2000/svg"
   xmlns:sodipodi="http://sodipodi.sourceforge.net/DTD/sodipodi-0.dtd"
   xmlns:inkscape="http://www.inkscape.org/namespaces/inkscape"
   width="64px"
   height="64px"
   viewBox="0 0 64 64"
   version="1.1"
   id="svg29"
   sodipodi:docname="org.pulseaudio.pavucontrol.svg"
   inkscape:version="1.0.2 (e86c870879, 2021-01-15)">
  <metadata
     id="metadata35">
    <rdf:RDF>
      <cc:Work
         rdf:about="">
        <dc:format>image/svg+xml</dc:format>
        <dc:type
           rdf:resource="http://purl.org/dc/dcmitype/StillImage" />
      </cc:Work>
    </rdf:RDF>
  </metadata>
  <defs
     id="defs33" />
  <sodipodi:namedview
     pagecolor="#ffffff"
     bordercolor="#666666"
     borderopacity="1"
     objecttolerance="10"
     gridtolerance="10"
     guidetolerance="10"
     inkscape:pageopacity="0"
     inkscape:pageshadow="2"
     inkscape:window-width="2560"
     inkscape:window-height="1403"
     id="namedview31"
     showgrid="false"
     inkscape:zoom="15.75"
     inkscape:cx="32"
     inkscape:cy="32"
     inkscape:window-x="0"
     inkscape:window-y="0"
     inkscape:window-maximized="1"
     inkscape:current-layer="surface1" />
  <g
     id="surface1">
    <path
       style="fill:#2e3436;fill-opacity:1;fill-rule:nonzero;stroke:none"
       d="m 7.9375,3.144531 h 47.625 c 1.460938,0 2.644531,1.1875 2.644531,2.648438 v 52.914062 c 0,1.460938 -1.183593,2.648438 -2.644531,2.648438 H 7.9375 c -1.460938,0 -2.644531,-1.1875 -2.644531,-2.648438 V 5.792969 c 0,-1.460938 1.183593,-2.648438 2.644531,-2.648438 z m 0,0"
       id="path2" />
    <path
       style="fill:#d0ebee;fill-opacity:1;fill-rule:nonzero;stroke:none"
       d="m 31.75,7.113281 c 11.691406,0 21.167969,9.476563 21.167969,21.167969 0,11.691406 -9.476563,21.167969 -21.167969,21.167969 -11.691406,0 -21.167969,-9.476563 -21.167969,-21.167969 0,-11.691406 9.476563,-21.167969 21.167969,-21.167969 z m 0,0"
       id="path4" />
    <path
       style="fill:#2e3436;fill-opacity:1;fill-rule:nonzero;stroke:none"
       d="m 31.75,11.082031 c 9.5,0 17.199219,7.699219 17.199219,17.199219 0,9.5 -7.699219,17.199219 -17.199219,17.199219 -9.5,0 -17.199219,-7.699219 -17.199219,-17.199219 0,-9.5 7.699219,-17.199219 17.199219,-17.199219 z m 0,0"
       id="path6" />
    <path
       style="fill:#0c0e11;fill-opacity:1;fill-rule:nonzero;stroke:none"
       d="m 31.75,13.730469 c 8.035156,0 14.550781,6.515625 14.550781,14.550781 0,8.035156 -6.515625,14.550781 -14.550781,14.550781 -8.035156,0 -14.550781,-6.515625 -14.550781,-14.550781 0,-8.035156 6.515625,-14.550781 14.550781,-14.550781 z m 0,0"
       id="path8" />
    <path
       style="fill:#2e3436;fill-opacity:1;fill-rule:nonzero;stroke:none"
       d="m 31.75,21.667969 c 3.652344,0 6.613281,2.960937 6.613281,6.613281 0,3.652344 -2.960937,6.613281 -6.613281,6.613281 -3.652344,0 -6.613281,-2.960937 -6.613281,-6.613281 0,-3.652344 2.960937,-6.613281 6.613281,-6.613281 z m 0,0"
       id="path10" />
    <path
       style="fill:#2e3436;fill-opacity:1;fill-rule:nonzero;stroke:none"
       d="m 46.132812,13.734375 c 0.386719,0.386719 0.386719,1.015625 0,1.402344 -0.386718,0.386719 -1.015624,0.386719 -1.402343,0 -0.386719,-0.386719 -0.386719,-1.015625 0,-1.402344 0.386719,-0.386719 1.015625,-0.386719 1.402343,0 z m 0,0"
       id="path12" />
    <path
       style="fill:#2e3436;fill-opacity:1;fill-rule:nonzero;stroke:none"
       d="m 45.898438,41.09375 c 0.386718,0.390625 0.386718,1.015625 0,1.40625 -0.386719,0.386719 -1.015626,0.386719 -1.402344,0 -0.386719,-0.390625 -0.386719,-1.015625 0,-1.40625 0.386718,-0.386719 1.015625,-0.386719 1.402344,0 z m 0,0"
       id="path14" />
    <path
       style="fill:#2e3436;fill-opacity:1;fill-rule:nonzero;stroke:none"
       d="m 18.769531,13.96875 c 0.386719,0.386719 0.386719,1.015625 0,1.402344 -0.386719,0.386718 -1.015625,0.386718 -1.402343,0 -0.386719,-0.386719 -0.386719,-1.015625 0,-1.402344 0.386718,-0.390625 1.015624,-0.390625 1.402343,0 z m 0,0"
       id="path16" />
    <path
       style="fill:#2e3436;fill-opacity:1;fill-rule:nonzero;stroke:none"
       d="m 18.769531,41.09375 c 0.386719,0.390625 0.386719,1.015625 0,1.40625 -0.386719,0.386719 -1.015625,0.386719 -1.402343,0 -0.386719,-0.390625 -0.386719,-1.015625 0,-1.40625 0.386718,-0.386719 1.015624,-0.386719 1.402343,0 z m 0,0"
       id="path18" />
    <path
       style="fill:#d0ebee;fill-opacity:1;fill-rule:nonzero;stroke:none"
       d="m 15.875,50.769531 c 2.191406,0 3.96875,1.777344 3.96875,3.96875 0,2.191407 -1.777344,3.96875 -3.96875,3.96875 -2.191406,0 -3.96875,-1.777343 -3.96875,-3.96875 0,-2.191406 1.777344,-3.96875 3.96875,-3.96875 z m 0,0"
       id="path20" />
    <path
       style="fill:#d0ebee;fill-opacity:1;fill-rule:nonzero;stroke:none"
       d="m 47.625,50.769531 c 2.191406,0 3.96875,1.777344 3.96875,3.96875 0,2.191407 -1.777344,3.96875 -3.96875,3.96875 -2.191406,0 -3.96875,-1.777343 -3.96875,-3.96875 0,-2.191406 1.777344,-3.96875 3.96875,-3.96875 z m 0,0"
       id="path22" />
    <path
       style="fill:#733447;fill-opacity:1;fill-rule:nonzero;stroke:none"
       d="m 15.875,52.753906 c 1.097656,0 1.984375,0.890625 1.984375,1.984375 0,1.097657 -0.886719,1.984375 -1.984375,1.984375 -1.097656,0 -1.984375,-0.886718 -1.984375,-1.984375 0,-1.09375 0.886719,-1.984375 1.984375,-1.984375 z m 0,0"
       id="path24" />
    <path
       style="fill:#257b76;fill-opacity:1;fill-rule:nonzero;stroke:none"
       d="m 47.625,52.753906 c 1.097656,0 1.984375,0.890625 1.984375,1.984375 0,1.097657 -0.886719,1.984375 -1.984375,1.984375 -1.097656,0 -1.984375,-0.886718 -1.984375,-1.984375 0,-1.09375 0.886719,-1.984375 1.984375,-1.984375 z m 0,0"
       id="path26" />
  </g>
</svg>

<?xml version="1.0" encoding="UTF-8"?>
<svg xmlns="http://www.w3.org/2000/svg" xmlns:xlink="http://www.w3.org/1999/xlink" width="64px" height="64px" viewBox="0 0 64 64" version="1.1">
<g id="surface1">
<path style=" stroke:none;fill-rule:nonzero;fill:rgb(55.29412%,43.137255%,38.82353%);fill-opacity:1;" d="M 7.9375 3.144531 L 55.5625 3.144531 C 57.023438 3.144531 58.207031 4.332031 58.207031 5.792969 L 58.207031 58.707031 C 58.207031 60.167969 57.023438 61.355469 55.5625 61.355469 L 7.9375 61.355469 C 6.476562 61.355469 5.292969 60.167969 5.292969 58.707031 L 5.292969 5.792969 C 5.292969 4.332031 6.476562 3.144531 7.9375 3.144531 Z M 7.9375 3.144531 "/>
<path style=" stroke:none;fill-rule:nonzero;fill:rgb(87.843138%,87.843138%,87.843138%);fill-opacity:1;" d="M 31.75 7.113281 C 43.441406 7.113281 52.917969 16.589844 52.917969 28.28125 C 52.917969 39.972656 43.441406 49.449219 31.75 49.449219 C 20.058594 49.449219 10.582031 39.972656 10.582031 28.28125 C 10.582031 16.589844 20.058594 7.113281 31.75 7.113281 Z M 31.75 7.113281 "/>
<path style=" stroke:none;fill-rule:nonzero;fill:rgb(38.039216%,38.039216%,38.039216%);fill-opacity:1;" d="M 31.75 11.082031 C 41.25 11.082031 48.949219 18.78125 48.949219 28.28125 C 48.949219 37.78125 41.25 45.480469 31.75 45.480469 C 22.25 45.480469 14.550781 37.78125 14.550781 28.28125 C 14.550781 18.78125 22.25 11.082031 31.75 11.082031 Z M 31.75 11.082031 "/>
<path style=" stroke:none;fill-rule:nonzero;fill:rgb(25.882354%,25.882354%,25.882354%);fill-opacity:1;" d="M 31.75 13.730469 C 39.785156 13.730469 46.300781 20.246094 46.300781 28.28125 C 46.300781 36.316406 39.785156 42.832031 31.75 42.832031 C 23.714844 42.832031 17.199219 36.316406 17.199219 28.28125 C 17.199219 20.246094 23.714844 13.730469 31.75 13.730469 Z M 31.75 13.730469 "/>
<path style=" stroke:none;fill-rule:nonzero;fill:rgb(38.039216%,38.039216%,38.039216%);fill-opacity:1;" d="M 31.75 21.667969 C 35.402344 21.667969 38.363281 24.628906 38.363281 28.28125 C 38.363281 31.933594 35.402344 34.894531 31.75 34.894531 C 28.097656 34.894531 25.136719 31.933594 25.136719 28.28125 C 25.136719 24.628906 28.097656 21.667969 31.75 21.667969 Z M 31.75 21.667969 "/>
<path style=" stroke:none;fill-rule:nonzero;fill:rgb(61.960787%,61.960787%,61.960787%);fill-opacity:1;" d="M 46.132812 13.734375 C 46.519531 14.121094 46.519531 14.75 46.132812 15.136719 C 45.746094 15.523438 45.117188 15.523438 44.730469 15.136719 C 44.34375 14.75 44.34375 14.121094 44.730469 13.734375 C 45.117188 13.347656 45.746094 13.347656 46.132812 13.734375 Z M 46.132812 13.734375 "/>
<path style=" stroke:none;fill-rule:nonzero;fill:rgb(61.960787%,61.960787%,61.960787%);fill-opacity:1;" d="M 45.898438 41.09375 C 46.285156 41.484375 46.285156 42.109375 45.898438 42.5 C 45.511719 42.886719 44.882812 42.886719 44.496094 42.5 C 44.109375 42.109375 44.109375 41.484375 44.496094 41.09375 C 44.882812 40.707031 45.511719 40.707031 45.898438 41.09375 Z M 45.898438 41.09375 "/>
<path style=" stroke:none;fill-rule:nonzero;fill:rgb(61.960787%,61.960787%,61.960787%);fill-opacity:1;" d="M 18.769531 13.96875 C 19.15625 14.355469 19.15625 14.984375 18.769531 15.371094 C 18.382812 15.757812 17.753906 15.757812 17.367188 15.371094 C 16.980469 14.984375 16.980469 14.355469 17.367188 13.96875 C 17.753906 13.578125 18.382812 13.578125 18.769531 13.96875 Z M 18.769531 13.96875 "/>
<path style=" stroke:none;fill-rule:nonzero;fill:rgb(61.960787%,61.960787%,61.960787%);fill-opacity:1;" d="M 18.769531 41.09375 C 19.15625 41.484375 19.15625 42.109375 18.769531 42.5 C 18.382812 42.886719 17.753906 42.886719 17.367188 42.5 C 16.980469 42.109375 16.980469 41.484375 17.367188 41.09375 C 17.753906 40.707031 18.382812 40.707031 18.769531 41.09375 Z M 18.769531 41.09375 "/>
<path style=" stroke:none;fill-rule:nonzero;fill:rgb(87.843138%,87.843138%,87.843138%);fill-opacity:1;" d="M 15.875 50.769531 C 18.066406 50.769531 19.84375 52.546875 19.84375 54.738281 C 19.84375 56.929688 18.066406 58.707031 15.875 58.707031 C 13.683594 58.707031 11.90625 56.929688 11.90625 54.738281 C 11.90625 52.546875 13.683594 50.769531 15.875 50.769531 Z M 15.875 50.769531 "/>
<path style=" stroke:none;fill-rule:nonzero;fill:rgb(87.843138%,87.843138%,87.843138%);fill-opacity:1;" d="M 47.625 50.769531 C 49.816406 50.769531 51.59375 52.546875 51.59375 54.738281 C 51.59375 56.929688 49.816406 58.707031 47.625 58.707031 C 45.433594 58.707031 43.65625 56.929688 43.65625 54.738281 C 43.65625 52.546875 45.433594 50.769531 47.625 50.769531 Z M 47.625 50.769531 "/>
<path style=" stroke:none;fill-rule:nonzero;fill:rgb(93.725491%,32.549021%,31.37255%);fill-opacity:1;" d="M 15.875 52.753906 C 16.972656 52.753906 17.859375 53.644531 17.859375 54.738281 C 17.859375 55.835938 16.972656 56.722656 15.875 56.722656 C 14.777344 56.722656 13.890625 55.835938 13.890625 54.738281 C 13.890625 53.644531 14.777344 52.753906 15.875 52.753906 Z M 15.875 52.753906 "/>
<path style=" stroke:none;fill-rule:nonzero;fill:rgb(14.901961%,65.098041%,60.392159%);fill-opacity:1;" d="M 47.625 52.753906 C 48.722656 52.753906 49.609375 53.644531 49.609375 54.738281 C 49.609375 55.835938 48.722656 56.722656 47.625 56.722656 C 46.527344 56.722656 45.640625 55.835938 45.640625 54.738281 C 45.640625 53.644531 46.527344 52.753906 47.625 52.753906 Z M 47.625 52.753906 "/>
</g>
</svg>
